dist/img/prize.svg

<svg width="64" height="64" viewBox="0 0 64 64" fill="none" xmlns="http://www.w3.org/2000/svg">
<path d="M39.0273 0.125155C37.5 0.0743734 35.9492 0.648593 34.6992 2.00015C33.6992 3.10172 33 5.50015 32.5977 7.80094C32.3008 6.50015 31.8008 5.30094 31.1992 4.60172C29.3008 2.50015 26 2.60172 24 4.60172C22 6.60172 22 9.80094 24 11.8009C24.1016 11.9025 24.1992 12.0002 24.3008 12.0002H7C5.30078 12.0002 4 13.3009 4 15.0002V21.0002C4 21.8009 4.30078 22.5978 4.89844 23.0978C5.19922 23.3986 5.60156 23.6994 6 23.8009V53.0002C6 54.6994 7.30078 56.0002 9 56.0002H57C58.6992 56.0002 60 54.6994 60 53.0002V23.8009C60.3984 23.6994 60.8008 23.3986 61.0977 23.0978C61.6992 22.5002 62 21.8009 62 21.0002V15.0002C62 13.3009 60.6992 12.0002 59 12.0002H40.6992C41.6992 11.6017 42.5977 11.1017 43.1992 10.5002C45.5 8.19937 45.5 4.30094 43.1992 2.00015C42.0508 0.851718 40.5508 0.175936 39.0273 0.125155ZM39.0977 2.00015C40.1992 2.00015 41.1992 2.39859 42 3.19937C43.6016 4.80094 43.6016 7.39859 42 9.00015C40.8984 10.1017 36.8984 11.1994 34 11.6994C34.3008 8.59781 35 4.30094 36.1992 3.19937C37 2.39859 38 2.00015 39.0977 2.00015ZM27.5 5.00015C28.3008 5.00015 29.0977 5.30094 29.6992 5.89859C30.3984 6.60172 31 9.50015 31.3008 12.0002H29.5C27.6992 11.6017 25.9023 11.0002 25.3008 10.3009C24.1016 9.10172 24.1016 7.10172 25.3008 5.89859C25.9023 5.30094 26.6992 5.00015 27.5 5.00015ZM7 14.0002H32V22.0002H7C6.69922 22.0002 6.5 21.8986 6.30078 21.6994C6.10156 21.5002 6 21.3009 6 21.0002V15.0002C6 14.3986 6.39844 14.0002 7 14.0002ZM34 14.0002H59C59.6016 14.0002 60 14.3986 60 15.0002V21.0002C60 21.3009 59.8984 21.5002 59.6992 21.6994C59.5 21.8986 59.3008 22.0002 59 22.0002H45C44.3984 22.0002 44 22.3986 44 23.0002C44 23.6017 44.3984 24.0002 45 24.0002H58V53.0002C58 53.6017 57.6016 54.0002 57 54.0002H9C8.39844 54.0002 8 53.6017 8 53.0002V24.0002H32V44.9025C32 45.5002 32.3984 46.0002 33 46.0002C33.6016 46.0002 34 45.6017 34 44.9025V14.0002ZM37 22.0002C36.3984 22.0002 36 22.3986 36 23.0002C36 23.6017 36.3984 24.0002 37 24.0002H41C41.6016 24.0002 42 23.6017 42 23.0002C42 22.3986 41.6016 22.0002 41 22.0002H37ZM13 48.0002C12.3984 48.0002 12 48.3986 12 49.0002V51.0002C12 51.6017 12.3984 52.0002 13 52.0002C13.6016 52.0002 14 51.6017 14 51.0002V49.0002C14 48.3986 13.6016 48.0002 13 48.0002ZM18 48.0002C17.3984 48.0002 17 48.3986 17 49.0002V51.0002C17 51.6017 17.3984 52.0002 18 52.0002C18.6016 52.0002 19 51.6017 19 51.0002V49.0002C19 48.3986 18.6016 48.0002 18 48.0002ZM23 48.0002C22.3984 48.0002 22 48.3986 22 49.0002V51.0002C22 51.6017 22.3984 52.0002 23 52.0002C23.6016 52.0002 24 51.6017 24 51.0002V49.0002C24 48.3986 23.6016 48.0002 23 48.0002ZM28 48.0002C27.3984 48.0002 27 48.3986 27 49.0002V51.0002C27 51.6017 27.3984 52.0002 28 52.0002C28.6016 52.0002 29 51.6017 29 51.0002V49.0002C29 48.3986 28.6016 48.0002 28 48.0002ZM33 48.0002C32.3984 48.0002 32 48.3986 32 49.0002V51.0002C32 51.6017 32.3984 52.0002 33 52.0002C33.6016 52.0002 34 51.6017 34 51.0002V49.0002C34 48.3986 33.6016 48.0002 33 48.0002ZM38 48.0002C37.3984 48.0002 37 48.3986 37 49.0002V51.0002C37 51.6017 37.3984 52.0002 38 52.0002C38.6016 52.0002 39 51.6017 39 51.0002V49.0002C39 48.3986 38.6016 48.0002 38 48.0002ZM43 48.0002C42.3984 48.0002 42 48.3986 42 49.0002V51.0002C42 51.6017 42.3984 52.0002 43 52.0002C43.6016 52.0002 44 51.6017 44 51.0002V49.0002C44 48.3986 43.6016 48.0002 43 48.0002ZM48 48.0002C47.3984 48.0002 47 48.3986 47 49.0002V51.0002C47 51.6017 47.3984 52.0002 48 52.0002C48.6016 52.0002 49 51.6017 49 51.0002V49.0002C49 48.3986 48.6016 48.0002 48 48.0002ZM53 48.0002C52.3984 48.0002 52 48.3986 52 49.0002V51.0002C52 51.6017 52.3984 52.0002 53 52.0002C53.6016 52.0002 54 51.6017 54 51.0002V49.0002C54 48.3986 53.6016 48.0002 53 48.0002Z" fill="black"/>
<path d="M37 22C36.3984 22 36 22.3984 36 23C36 23.6016 36.3984 24 37 24H41C41.6016 24 42 23.6016 42 23C42 22.3984 41.6016 22 41 22H37ZM13 48C12.3984 48 12 48.3984 12 49V51C12 51.6016 12.3984 52 13 52C13.6016 52 14 51.6016 14 51V49C14 48.3984 13.6016 48 13 48ZM18 48C17.3984 48 17 48.3984 17 49V51C17 51.6016 17.3984 52 18 52C18.6016 52 19 51.6016 19 51V49C19 48.3984 18.6016 48 18 48ZM23 48C22.3984 48 22 48.3984 22 49V51C22 51.6016 22.3984 52 23 52C23.6016 52 24 51.6016 24 51V49C24 48.3984 23.6016 48 23 48ZM28 48C27.3984 48 27 48.3984 27 49V51C27 51.6016 27.3984 52 28 52C28.6016 52 29 51.6016 29 51V49C29 48.3984 28.6016 48 28 48ZM33 48C32.3984 48 32 48.3984 32 49V51C32 51.6016 32.3984 52 33 52C33.6016 52 34 51.6016 34 51V49C34 48.3984 33.6016 48 33 48ZM38 48C37.3984 48 37 48.3984 37 49V51C37 51.6016 37.3984 52 38 52C38.6016 52 39 51.6016 39 51V49C39 48.3984 38.6016 48 38 48ZM43 48C42.3984 48 42 48.3984 42 49V51C42 51.6016 42.3984 52 43 52C43.6016 52 44 51.6016 44 51V49C44 48.3984 43.6016 48 43 48ZM48 48C47.3984 48 47 48.3984 47 49V51C47 51.6016 47.3984 52 48 52C48.6016 52 49 51.6016 49 51V49C49 48.3984 48.6016 48 48 48ZM53 48C52.3984 48 52 48.3984 52 49V51C52 51.6016 52.3984 52 53 52C53.6016 52 54 51.6016 54 51V49C54 48.3984 53.6016 48 53 48Z" fill="#E12025"/>
</svg>

<svg xmlns="http://www.w3.org/2000/svg" fill="none" viewBox="0 0 64 64"><path fill="#000" d="M39.027.125C37.5.075 35.95.65 34.7 2c-1 1.102-1.699 3.5-2.101 5.8-.297-1.3-.797-2.5-1.399-3.198-1.898-2.102-5.199-2-7.199 0S22 9.8 24 11.8c.102.101.2.2.3.2H7c-1.7 0-3 1.3-3 3v6c0 .8.3 1.597.898 2.097.301.3.704.601 1.102.703V53c0 1.698 1.3 3 3 3h48c1.7 0 3-1.302 3-3V23.8c.398-.102.8-.402 1.098-.703C61.699 22.5 62 21.8 62 21v-6c0-1.7-1.3-3-3-3H40.7c1-.398 1.898-.898 2.5-1.5 2.3-2.3 2.3-6.2 0-8.5C42.05.852 40.55.176 39.026.125zM39.097 2C40.2 2 41.2 2.4 42 3.2A4.102 4.102 0 0142 9c-1.102 1.102-5.102 2.2-8 2.7.3-3.102 1-7.4 2.2-8.5C37 2.398 38 2 39.097 2zM27.5 5c.8 0 1.598.3 2.2.899.698.703 1.3 3.601 1.6 6.101h-1.8c-1.8-.398-3.598-1-4.2-1.7-1.198-1.198-1.198-3.198 0-4.401A3.11 3.11 0 0127.5 5zM7 14h25v8H7c-.3 0-.5-.101-.7-.3-.198-.2-.3-.4-.3-.7v-6c0-.601.398-1 1-1zm27 0h25c.602 0 1 .399 1 1v6c0 .3-.102.5-.3.7-.2.199-.4.3-.7.3H45c-.602 0-1 .399-1 1 0 .602.398 1 1 1h13v29c0 .602-.398 1-1 1H9c-.602 0-1-.398-1-1V24h24v20.903C32 45.5 32.398 46 33 46s1-.398 1-1.097V14zm3 8c-.602 0-1 .399-1 1 0 .602.398 1 1 1h4c.602 0 1-.398 1-1 0-.601-.398-1-1-1h-4zM13 48c-.602 0-1 .399-1 1v2c0 .602.398 1 1 1s1-.398 1-1v-2c0-.601-.398-1-1-1zm5 0c-.602 0-1 .399-1 1v2c0 .602.398 1 1 1s1-.398 1-1v-2c0-.601-.398-1-1-1zm5 0c-.602 0-1 .399-1 1v2c0 .602.398 1 1 1s1-.398 1-1v-2c0-.601-.398-1-1-1zm5 0c-.602 0-1 .399-1 1v2c0 .602.398 1 1 1s1-.398 1-1v-2c0-.601-.398-1-1-1zm5 0c-.602 0-1 .399-1 1v2c0 .602.398 1 1 1s1-.398 1-1v-2c0-.601-.398-1-1-1zm5 0c-.602 0-1 .399-1 1v2c0 .602.398 1 1 1s1-.398 1-1v-2c0-.601-.398-1-1-1zm5 0c-.602 0-1 .399-1 1v2c0 .602.398 1 1 1s1-.398 1-1v-2c0-.601-.398-1-1-1zm5 0c-.602 0-1 .399-1 1v2c0 .602.398 1 1 1s1-.398 1-1v-2c0-.601-.398-1-1-1zm5 0c-.602 0-1 .399-1 1v2c0 .602.398 1 1 1s1-.398 1-1v-2c0-.601-.398-1-1-1z"/><path fill="#E12025" d="M37 22c-.602 0-1 .398-1 1s.398 1 1 1h4c.602 0 1-.398 1-1s-.398-1-1-1h-4zM13 48c-.602 0-1 .398-1 1v2c0 .602.398 1 1 1s1-.398 1-1v-2c0-.602-.398-1-1-1zm5 0c-.602 0-1 .398-1 1v2c0 .602.398 1 1 1s1-.398 1-1v-2c0-.602-.398-1-1-1zm5 0c-.602 0-1 .398-1 1v2c0 .602.398 1 1 1s1-.398 1-1v-2c0-.602-.398-1-1-1zm5 0c-.602 0-1 .398-1 1v2c0 .602.398 1 1 1s1-.398 1-1v-2c0-.602-.398-1-1-1zm5 0c-.602 0-1 .398-1 1v2c0 .602.398 1 1 1s1-.398 1-1v-2c0-.602-.398-1-1-1zm5 0c-.602 0-1 .398-1 1v2c0 .602.398 1 1 1s1-.398 1-1v-2c0-.602-.398-1-1-1zm5 0c-.602 0-1 .398-1 1v2c0 .602.398 1 1 1s1-.398 1-1v-2c0-.602-.398-1-1-1zm5 0c-.602 0-1 .398-1 1v2c0 .602.398 1 1 1s1-.398 1-1v-2c0-.602-.398-1-1-1zm5 0c-.602 0-1 .398-1 1v2c0 .602.398 1 1 1s1-.398 1-1v-2c0-.602-.398-1-1-1z"/></svg>
